X: 1
T: Hold On
M: 4/4
L: 1/8
R: reel
K: Amix
|:Aeeg fdec|Aeeg GABG|Aeeg fdef|gedg GABG:|
|:Ag (3fga fdec|Ag (3fga GABG|Ag (3fga fdef|gedg GABG:|
